res/skins/LateNight/buttons/btn_hotcue_8_unset.svg

<?xml version="1.0" encoding="UTF-8" standalone="no"?>
<svg
   xmlns:dc="http://purl.org/dc/elements/1.1/"
   xmlns:cc="http://creativecommons.org/ns#"
   xmlns:rdf="http://www.w3.org/1999/02/22-rdf-syntax-ns#"
   xmlns:svg="http://www.w3.org/2000/svg"
   xmlns="http://www.w3.org/2000/svg"
   id="svg81"
   version="1.1"
   height="26"
   width="26">
  <metadata
     id="metadata85">
    <rdf:RDF>
      <cc:Work
         rdf:about="">
        <dc:format>image/svg+xml</dc:format>
        <dc:type
           rdf:resource="http://purl.org/dc/dcmitype/StillImage" />
        <dc:title></dc:title>
      </cc:Work>
    </rdf:RDF>
  </metadata>
  <defs
     id="defs11">
    <linearGradient
       gradientUnits="userSpaceOnUse"
       gradientTransform="translate(0,-24)"
       y2="12"
       y1="12"
       x2="23.5"
       x1=".5"
       id="a">
      <stop
         id="stop2"
         offset="0"
         stop-opacity=".17647" />
      <stop
         id="stop4"
         offset=".12672"
         stop-opacity=".0047619" />
      <stop
         id="stop6"
         offset=".54348"
         stop-opacity="0" />
      <stop
         id="stop8"
         offset="1"
         stop-opacity=".47451" />
    </linearGradient>
  </defs>
  <path
     style="opacity:0.8;fill:#030303"
     id="path15"
     d="m 23.31367,1.1758 c 0.11592,0.25262 0.18555,0.52951 0.18555,0.82422 v 20 c 0,1.0994 -0.9006,1.965573 -2,1.965572 L 2,23.965572 c -0.6598637,-1e-6 -1.13567505,-0.352003 -1.325,-0.511743 0.20909416,0.790888 0.7641575,1.546141 1.8242,1.546141 h 20 c 1.108,0 2,-0.892 2,-2 v -20 c 0,-0.81658 -0.48717,-1.5129 -1.1855,-1.8242 z" />
  <rect
     id="rect17"
     fill="url(#a)"
     color="#000000"
     ry="1.5"
     rx="1.5"
     height="23"
     width="23"
     y="-23.5"
     x=".5"
     transform="rotate(90)" />
  <g
     id="g27"
     display="none">
    <g
       id="g25"
       display="inline">
      <path
         id="path21"
         fill="#dcdcdc"
         d="m10 9h3v6h-2v-5h-1v-1" />
      <path
         id="path23"
         fill="#323232"
         d="m13 10h1v6h-2v-1h1v-5" />
    </g>
  </g>
  <g
     id="g35"
     display="none">
    <g
       id="g33"
       display="inline">
      <path
         id="path29"
         fill="#323232"
         d="m10 10h7v4h-5v1h5v1h-7v-3h5v-2h-5v-1" />
      <path
         id="path31"
         fill="#dcdcdc"
         d="m9 9h7v4h-5v1h5v1h-7v-3h5v-2h-5v-1" />
    </g>
  </g>
  <g
     id="g43"
     display="none">
    <g
       id="g41"
       display="inline">
      <path
         id="path37"
         fill="#323232"
         d="m10 10h7v6h-7v-1h5v-1h-2v-1h2v-2h-5v-1" />
      <path
         id="path39"
         fill="#dcdcdc"
         d="m9 9h7v6h-7v-1h5v-1h-2v-1h2v-2h-5v-1" />
    </g>
  </g>
  <g
     id="g51"
     display="none">
    <g
       id="g49"
       display="inline">
      <path
         id="path45"
         fill="#323232"
         d="m10 11v3h5v2h2v-6h-2v3h-3v-2h-2" />
      <path
         id="path47"
         fill="#dcdcdc"
         d="m9 10v3h5v2h2v-6h-2v3h-3v-2h-2" />
    </g>
  </g>
  <g
     id="g59"
     display="none">
    <g
       id="g57"
       display="inline">
      <path
         id="path53"
         fill="#323232"
         d="m17 10h-6v3h4v2h-5v1h7v-4h-5v-1h5v-1" />
      <path
         id="path55"
         fill="#dcdcdc"
         d="m16 9h-6v3h4v2h-5v1h7v-4h-5v-1h5v-1" />
    </g>
  </g>
  <g
     id="g67"
     display="none">
    <g
       id="g65"
       display="inline">
      <path
         id="path61"
         fill="#323232"
         d="m10 10v6h7v-4h-5v-1h4v-1zm2 3h4v2h-4z" />
      <path
         id="path63"
         fill="#dcdcdc"
         d="m9 9v6h7v-4h-5v-1h4v-1zm2 3h4v2h-4z" />
    </g>
  </g>
  <g
     id="g75"
     display="none">
    <g
       id="g73"
       display="inline">
      <path
         id="path69"
         fill="#323232"
         d="m10 10h6v3h1v1h-1v2h-2v-2h-2v-1h2v-2h-4v-1" />
      <path
         id="path71"
         fill="#dcdcdc"
         d="m9 9h6v3h1v1h-1v2h-2v-2h-2v-1h2v-2h-4v-1" />
    </g>
  </g>
  <path
     id="path77"
     stroke-width="1.6"
     stroke="#000"
     fill="#dcdcdc"
     d="m10 9v2h-1v4h7v-4h-1v-2zm2 1h2v1h-2zm-1 2h4v2h-4z" />
  <path
     id="path79"
     fill="#dcdcdc"
     d="m10 9v2h-1v4h7v-4h-1v-2zm2 1h2v1h-2zm-1 2h4v2h-4z" />
  <path
     id="path19"
     style="color:#000000;text-indent:0;text-transform:none;fill:#444444"
     d="M 2,0 C 0.9006,0 0,0.90065 0,2 v 20 c 0,1.0994 0.90065,2 2,2 h 20 c 1.0994,0 2,-0.90065 2,-2 V 2 C 24,0.9006 23.09935,0 22,0 Z M 2.3,1 H 21.7 C 22.26265,1 23,1.73735 23,2.3 V 21.7 C 23,22.26265 22.26265,23 21.7,23 H 2.3 C 1.73735,23 1,22.26265 1,21.7 V 2.3 C 1,1.73735 1.73735,1 2.3,1 Z" />
</svg>

<svg width="26" height="26" version="1.1" xmlns="http://www.w3.org/2000/svg"><defs><linearGradient id="a" x1=".5" x2="23.5" y1="12" y2="12" gradientTransform="translate(0,-24)" gradientUnits="userSpaceOnUse"><stop stop-opacity=".17647" offset="0"/><stop stop-opacity=".0047619" offset=".12672"/><stop stop-opacity="0" offset=".54348"/><stop stop-opacity=".47451" offset="1"/></linearGradient></defs><path d="m24.82 2.1797c.11293.25091.17969.52638.17969.82031v20c0 1.108-.892 2-2 2h-20c-.29393 0-.5694-.06676-.82031-.17969.31276.69491 1.0062 1.1797 1.8203 1.1797h20c1.108 0 2-.892 2-2v-20c0-.81407-.48477-1.5075-1.1797-1.8203z" fill="#010101" opacity=".5"/><path d="m23.814 1.1758c.11592.25262.18555.52951.18555.82422v20c0 1.0994-.9006 2-2 2h-20c-.2947 0-.5716-.06963-.82422-.18555.31134.69838 1.0076 1.1855 1.8242 1.1855h20c1.108 0 2-.892 2-2v-20c0-.81658-.48717-1.5129-1.1855-1.8242z" fill="#030303" opacity=".8"/><rect transform="rotate(90)" x=".5" y="-23.5" width="23" height="23" rx="1.5" ry="1.5" color="#000000" fill="url(#a)"/><path d="m2 0c-1.0994 0-2 .90065-2 2v20c0 1.0994.90065 2 2 2h20c1.0994 0 2-.90065 2-2v-20c0-1.0994-.90065-2-2-2zm.3 1h19.4c.56265 0 1.3.73735 1.3 1.3v19.4c0 .56265-.73735 1.3-1.3 1.3h-19.4c-.56265 0-1.3-.73735-1.3-1.3v-19.4c0-.56265.73735-1.3 1.3-1.3z" color="#000000" fill="#444444" style="text-indent:0;text-transform:none"/><g display="none"><g display="inline"><path d="m10 9h3v6h-2v-5h-1v-1" fill="#dcdcdc"/><path d="m13 10h1v6h-2v-1h1v-5" fill="#323232"/></g></g><g display="none"><g display="inline"><path d="m10 10h7v4h-5v1h5v1h-7v-3h5v-2h-5v-1" fill="#323232"/><path d="m9 9h7v4h-5v1h5v1h-7v-3h5v-2h-5v-1" fill="#dcdcdc"/></g></g><g display="none"><g display="inline"><path d="m10 10h7v6h-7v-1h5v-1h-2v-1h2v-2h-5v-1" fill="#323232"/><path d="m9 9h7v6h-7v-1h5v-1h-2v-1h2v-2h-5v-1" fill="#dcdcdc"/></g></g><g display="none"><g display="inline"><path d="m10 11v3h5v2h2v-6h-2v3h-3v-2h-2" fill="#323232"/><path d="m9 10v3h5v2h2v-6h-2v3h-3v-2h-2" fill="#dcdcdc"/></g></g><g display="none"><g display="inline"><path d="m17 10h-6v3h4v2h-5v1h7v-4h-5v-1h5v-1" fill="#323232"/><path d="m16 9h-6v3h4v2h-5v1h7v-4h-5v-1h5v-1" fill="#dcdcdc"/></g></g><g display="none"><g display="inline"><path d="m10 10v6h7v-4h-5v-1h4v-1zm2 3h4v2h-4z" fill="#323232"/><path d="m9 9v6h7v-4h-5v-1h4v-1zm2 3h4v2h-4z" fill="#dcdcdc"/></g></g><g display="none"><g display="inline"><path d="m10 10h6v3h1v1h-1v2h-2v-2h-2v-1h2v-2h-4v-1" fill="#323232"/><path d="m9 9h6v3h1v1h-1v2h-2v-2h-2v-1h2v-2h-4v-1" fill="#dcdcdc"/></g></g><path d="m10 9v2h-1v4h7v-4h-1v-2zm2 1h2v1h-2zm-1 2h4v2h-4z" fill="#dcdcdc" stroke="#000" stroke-width="1.6"/><path d="m10 9v2h-1v4h7v-4h-1v-2zm2 1h2v1h-2zm-1 2h4v2h-4z" fill="#dcdcdc"/></svg>
